X:1
T:Ah me! can every rumour - Wilbye
T:James Gibb editions
T:#
%%score { 1 | 2 } 3 { ( 4 5 ) | 6 }
L:1/8
Q:1/4=120
M:4/4
K:Bb
V:1 treble nm="Soprano I" snm="S"
V:2 treble 
V:3 treble-8 nm="Tenor" snm="T"
V:4 treble nm="Midi_7"
V:5 treble 
V:6 bass 
V:1
"^Ah me! can every rumour""^John Wilbye\n (1574-1638)"!p! B8 | A8 | z2"^cresc." d4 c2- | %3
w: Ah|me!|can ev'\-|
 c2 _B2 A4 | G6!f! B2 |[M:4/4] B3 A B2 G2 | (^F2 G4) F2 |!p! B8 | A8 | z2 ^F2 G2 A2 | (^F2 G4 F2) | %11
w: * ry ru-|mour Thus|start my la- dy's|hu\- * mour?|Ah|me!|can ev'- ry|ru\- * *|
 G6!f! G2 | ^F4 z2 B2 | A4 z2 d2 | B3 A B2 d2 | (^c2 d4 c2) | d8 | B8 | c2 B2 A2 G2 | ^F2 F2 z4 | %20
w: mour thus|start, thus|start, thus|start my la- dy's|hu\- * *|mour?|Name|ye some gal- lant|to her,|
 B2 Bc d3 e | f4 B4- | B2 B2 e3 d | c2 B4 A2 | B4!ff! d4- | d4 c4 | B4 A4- | A2 G2 (G4- | G4 ^F4) | %29
w: name ye some gal- lant|to her,|* Why straight for-|sooth I woo|her, Then|* burst|she forth|* in pas\-||
 G4 g4- | g4 f4- | f4 e4 | d3 c (c4- | c4 =B4) | c4 G4 | A6 c2 | =B2 c2 d4 | e4 z2 d2 | e6 g2 | %39
w: sion, then|* burst|* she|forth in pas\-||sion, "You|men love|but for fash-|ion, you|men love|
 ^f2 g2 (g2 f2) | g8 | z4 z2!mf! g2 | g4 d2 =f2- | f2 c2 e4 | d2 G3 G ^F2 | G2 G2 d4- | d4 G4 | %47
w: but for fash\- *|ion;"|Yet|sure I am|* that no|man e- ver so|lo- ved wo\-|* man;|
 z2!p! g3 f e2 | d2 d2 c4 | =B2 g3 f e2 | d2 c2 =B4 | c8 |!f! =E4 ^F2 G2 | A2 B2 A4 | =B4 d2 d2- | %55
w: Yet a- las,|love be wa-|ry, yet a- las,|love be wa-|ry,|For wo- men|be con- tra-|ry. Yet sure|
 d2 A2 c4 | G2 _B4 A2- | A2 E2 G4 | D2 d4 A2 | B4 A4 | z2 d3 d c2 | d2 d2 c4 | =B2!p! g3 f e2 | %63
w: * I am,|that no man,|* yet sure|I am that|no man|e- ver so|lo- ved wo-|man; Yet a- las,|
 d2 d2 c4 | =B2 c2 d4 | c4 z2!f! G2- | G2[Q:1/4=118][Q:1/4=118] c4[Q:1/4=115][Q:1/4=115] B2 | %67
w: love be wa-|ry, be wa-|ry, For|* wo- men|
[Q:1/4=113][Q:1/4=113] A2[Q:1/4=111][Q:1/4=111] G4[Q:1/4=108][Q:1/4=108] ^F2 | %68
w: be con- tra-|
[Q:1/4=108][Q:1/4=108] G16 |] %69
w: ry.|
V:2
 z4!p! G4- | G4 ^F4 | z2"^cresc." ^F2 G2 A2 | (^F2 G4 F2) | G4 z4 |[M:4/4] z2!f! d2 d3 c | %6
w: Ah|* me!|can ev'- ry|ru\- * *|mour|Thus start my|
 d2 B2 A4 | G4!p! g4- | g4 ^f4 | z2 d4 c2- | c2 B2 A4 | =B8 | z2!f! A2 d4 | z2 c2 f4 | z2 d4 g2- | %15
w: la- dy's hu-|mour? Ah|* me!|can ev'\-|* ry ru-|mour|thus start,|thus start|my la\-|
 g2 f2 =e4 | ^f8 | d8 | e2 d2 c2 B2 | A4 A4 | z4 B2 Bc | d3 e f2 F2 | G4 G2 B2 | A2 B2 c4 | %24
w: * dy's hu-|mour?|Name|ye some gal- lant|to her,|name ye some|gal- lant to her,|Why straight for-|sooth I woo|
 d4!ff! f4- | f4 e4 | d4 c4- | c4 B4 | A8 | =B8 | e4 d4- | d4 c4 | =B4 c4 | d8 | e8 | c4 f3 e | %36
w: her, Then|* burst|she forth|* in|pas-|sion,|then burst|* she|forth on|pas-|sion,|"You men love|
 d2 c2 (c2 =B2) | c4 G4- | G4 c3 _B | A2 G2 A4 | =B4!mf! d2 d2- | d2 A2 c4 | G2 _B4 A2- | %43
w: but for fash\- *|ion, you|* men love|but for fash-|ion;" Yet sure|* I am|that no man,|
 A2 E2 G4 | D2 d4 A2 | B4 A4 | z2 d3 d c2 | d2 d2 c4 | =B2!p! g3 f e2 | d2 d2 c4 | =B2 c2 d4 | %51
w: * yet sure|I am that|no man|e- ver so|lo- ved wo-|man; Yet a- las,|love be wa-|ry, be wa-|
 c4 z2!f! G2- | G2 c4 B2 | A2 G2 (G2 ^F2) | G4 z4 | z4 z2 g2 | g4 d2 =f2- | f2 c2 e4 | %58
w: ry, For|* wo- men|be con- tra\- *|ry.|Yet|sure I am|* that no|
 d2 G3 G ^F2 | G2 G2 d4- | d4 G4 | z2!p! g3 f e2 | d2 d2 c4 | =B2 g3 f e2 | d2 c2 =B4 | c8 | %66
w: man e- ver so|lo- ved wo\-|* man;|Yet a- las,|love be wa-|ry, yet, a- las,|love be wa-|ry,|
!f! =E4 ^F2 G2 | A2 B2 A4 | =B16 |] %69
w: For wo- men|be con- tra-|ry.|
V:3
!p! G8 | d8 | z2"^cresc." d2 =B2 c2 | d8 | G6!f! g2 |[M:4/4][K:treble-8] g3 ^f g2 e2 | d4 d4 | %7
w: Ah|me!|can ev'- ry|ru-|mour Thus|start my la- dy's|hu- mour?|
!p! G8 | d8 | z2 d2 =B2 c2 | d8 | G6!f! G2 | d4 z2 B2 | f4 z2 d2 | g4 g4 | a8 | d8 | g8 | c4 c4 | %19
w: Ah|me!|can ev'- ry|ru-|mour thus|start, thus|start my|la- dy's|hu-|mour?|Name|ye some|
 d6 c2 | B8 | B6 B2 | e3 d c2 B2 | f8 | B8 |!ff! d8- | d8 | d8- | d4 d4 | G8- | G8 | G8 | G8- | %33
w: gal- lant|to|her, Why|straight for- sooth I|woo|her,|Then||burst|* she|forth||in|pas\-|
 G8 | c6 c2 | f3 e d2 c2 | g8 | c6 =B2 | c3 _B A2 G2 | d8 | G2!mf! g2 g4 | d2 f4 c2 | e4 d4 | %43
w: |sion, "You|men love but for|fash-|ion, you|men love but for|fash-|ion;" Yet sure|I am that|no man,|
 A2 c4 G2 | B2 B2 A4 | G2 g3 g ^f2 | g2 d2 e4 | d2!p! =BB c4 | G2 G2 c4 | g4 c4 | G8 | c6!f! c2 | %52
w: yet sure I|am that no|man e- ver so|lo- ved wo-|man; Yet a- las,|love be wa-|ry, be|wa-|ry, For|
 c3 B A2 G2 | d8 | G2 g2 g4 | d2 f4 c2 | e4 d4 | A2 c4 G2 | B2 B2 A4 | G2 g3 g ^f2 | g2 d2 e4 | %61
w: wo- men be con-|tra-|ry. Yet sure|I am that|no man,|yet sure I|am that no|man e- ver so|lo- ved wo-|
 d2!p! =BB c4 | G2 G2 c4 | g4 c4 | G8 | c6!f! c2 | c3 B A2 G2 | d8 | G16 |] %69
w: man; Yet a- las,|love be wa-|ry, be|wa-|ry, For|wo- men be con-|tra-|ry.|
V:4
 B8 | A8 | z2 d4 c2- | c2 _B2 A4 | G6 B2 |[M:4/4] B3 A B2 G2 | ^F2 G4 F2 | B4- B4 | A4- A4 | %9
 z2 ^F2 G2 A2 | ^F2 G4 F2 | G6 G2 | ^F4 z2 B2 | A4 z2 d2 | B3 A B2 d2 | ^c2 d4 c2 | d8 | B8 | %18
 c2 B2 A2 G2 | ^F2 F2 x4 | B2 Bc d3 e | f4 B2- B2 | B2 B2 e3 d | c2 B4 A2 | B4 d4- | d4 c4 | %26
 B4 A4- | A2 G2 G4- | G4 ^F4 | G4 g4- | g4 f4- | f4 e4 | d3 c c4- | c4 =B4 | c4 G4 | A6 c2 | %36
 =B2 c2 d4 | e4 z2 d2 | e6 g2 | ^f2 g2 g2 f2 | g8 | x4 z2 g2 | g4 d2 =f2- | f2 c2 e4 | %44
 d2 G3 G ^F2 | G2 G2 d4- | d4 G4 | x2 g3 f e2 | d2 d2 c4 | =B2 g3 f e2 | d2 c2 =B4 | c8 | %52
 =E4 ^F2 G2 | A2 B2 A4 | =B4 d2 d2- | d2 A2 c2- c2 | G2 _B4 A2- | A2 E2 G4 | D2 d4 A2 | B4 A4 | %60
 x2 d3 d c2 | d2 d2 c4 | =B2 g3 f e2 | d2 d2 c4 | =B2 c2 d4 | c4 z2 G2- | G2 c4 B2 | A2 G4 ^F2 | %68
 G16 |] %69
V:5
 x4 G4- | G4 ^F4 | z2 ^F2 G2 A2 | ^F2 G4 F2 | G4 x4 |[M:4/4] z2 d2 d3 c | d2 B2 A4 | G4 g4- | %8
 g4 ^f4 | x2 d4 c2- | c2 B2 A4 | =B8 | z2 A2 d4 | z2 c2 f4 | z2 d4 g2- | g2 f2 =e4 | ^f8 | d8 | %18
 e2 d2 c2 B2 | A4 A4 | x4 B2 Bc | d3 e f2 F2 | G4 G2 B2 | A2 B2 c4 | d4 f4- | f4 e4 | d4 c4- | %27
 c2 c2 B4 | A8 | =B8 | e4 d4- | d4 c4 | =B4 c4 | d8 | e8 | c4 f3 e | d2 c2 c2 =B2 | c4 G4- | %38
 G4 c3 _B | A2 G2 A4 | =B4 d2 d2- | d2 A2 c4 | G2 _B4 A2- | A2 E2 G4 | D2 d4 A2 | B4 A4 | %46
 x2 d3 d c2 | d2 d2 c4 | =B2 g3 f e2 | d2 d2 c4 | =B2 c2 d4 | c4 z2 G2- | G2 c4 B2 | A2 G2 G2 ^F2 | %54
 G4 x4 | x4 x2 g2 | g4 d2 =f2- | f2 c2 e4 | d2 G3 G ^F2 | G2 G2 d4- | d4 G4 | x2 g3 f e2 | %62
 d2 d2 c4 | =B2 g3 f e2 | d2 c2 =B4 | c8 | =E4 ^F2 G2 | A2 B2 A4 | =B16 |] %69
V:6
 G,8 | D8 | z2 D2 =B,2 C2 | D8 | G,6!f![I:staff -1] G2 |[M:4/4] G3 ^F G2 E2 |[I:staff +1] D4 D4 | %7
 G,8 | D8 | z2 D2 =B,2 C2 | D8 | G,6 G,2 |[I:staff -1] D4[I:staff +1] z2 B,2 | %13
[I:staff -1] F4[I:staff +1] z2 D2 | G4 G4 | A8 | D8 |[I:staff -1] G8 |[I:staff +1] C4 C4 | D6 C2 | %20
 B,8 | B,6 B,2 | E3 D C2 B,2 | F8 | B,8 | D8- | D8 | D8- | D4 D4 | G,8- | G,8 | G,8 | G,8- | G,8 | %34
 C6 C2 | F3 E D2 C2 |[I:staff -1] G8 |[I:staff +1] C6 =B,2 | C3 _B, A,2 G,2 | D8 | %40
 G,2[I:staff -1] G2 G4 |[I:staff +1] D2 F4 C2 | E4 D4 | A,2 C4 G,2 | B,2 B,2 A,4 | G,2 G3 G ^F2 | %46
[I:staff -1] G2 D2 E4 |[I:staff +1] D2 =B,B, C4 | G,2 G,2 C4 |[I:staff -1] G2- G2[I:staff +1] C4 | %50
 G,8 | C6 C2 | C3 B, A,2 G,2 | D8 | G,2[I:staff -1] G2 G4 |[I:staff +1] D2 F4 C2 | E4 D4 | %57
 A,2 C4 G,2 | B,2 B,2 A,4 | G,2 G3 G ^F2 |[I:staff -1] G2 D2 E4 |[I:staff +1] D2 =B,B, C4 | %62
 G,2 G,2 C4 |[I:staff -1] G2- G2[I:staff +1] C4 | G,8 | C6 C2 | C3 B, A,2 G,2 | D8 | G,16 |] %69

